src/assets/outline/ArrowLeft1.svg

<svg width="24" height="24" viewBox="0 0 24 24"  xmlns="http://www.w3.org/2000/svg">
<path d="M15.1 19.15C14.26 19.15 13.34 18.88 12.41 18.34L7.78 15.67C6.15 14.72 5.25 13.42 5.25 12C5.25 10.58 6.15 9.28005 7.78 8.34005L12.41 5.67005C14.04 4.73005 15.61 4.60005 16.85 5.31005C18.08 6.02005 18.76 7.45005 18.76 9.33005V14.67C18.76 16.55 18.08 17.98 16.85 18.69C16.32 19 15.73 19.15 15.1 19.15ZM15.1 6.36005C14.52 6.36005 13.86 6.56005 13.16 6.97005L8.53 9.64005C7.38 10.3 6.75 11.14 6.75 12C6.75 12.86 7.38 13.7 8.53 14.36L13.16 17.03C14.31 17.69 15.35 17.82 16.1 17.39C16.85 16.96 17.26 15.99 17.26 14.67V9.33005C17.26 8.01005 16.85 7.04005 16.1 6.61005C15.8 6.44005 15.46 6.36005 15.1 6.36005Z" />
</svg>

<?xml version="1.0" encoding="UTF-8"?>
<svg width="24" height="24" viewBox="0 0 24 24" xmlns="http://www.w3.org/2000/svg">
 <path d="m15.1 19.15c-0.84 0-1.76-0.27-2.69-0.81l-4.63-2.67c-1.63-0.95-2.53-2.25-2.53-3.67s0.9-2.72 2.53-3.66l4.63-2.67c1.63-0.94 3.2-1.07 4.44-0.36 1.23 0.71 1.91 2.14 1.91 4.02v5.34c0 1.88-0.68 3.31-1.91 4.02-0.53 0.31-1.12 0.46-1.75 0.46zm0-12.79c-0.58 0-1.24 0.2-1.94 0.61l-4.63 2.67c-1.15 0.65995-1.78 1.5-1.78 2.36s0.63 1.7 1.78 2.36l4.63 2.67c1.15 0.66 2.19 0.79 2.94 0.36s1.16-1.4 1.16-2.72v-5.34c0-1.32-0.41-2.29-1.16-2.72-0.3-0.17-0.64-0.25-1-0.25z"/>
</svg>
